!!!COM:	de Orto, Marbrianus
!!!CDT:	~1460///-1529//
!!!OTL:	Je ne suis poinct
!!!AGN:	Song; Chanson
!!!SCT:	Ort3005
!!!SCA:	Ort3005
!!!voices:	4
**kern	**kern	**kern	**kern
*Ivox	*Ivox	*Ivox	*Ivox
*I"Bassus	*I"Tenor	*I"Altus	*I"Discantus
*I'B	*I'T	*I'A	*I'D
*staff4	*staff3	*staff2	*staff1
*clefF4	*clefGv2	*clefGv2	*clefG2
*k[]	*k[]	*k[]	*k[]
*M2/1	*M2/1	*M2/1	*M2/1
*met(C|)	*met(C|)	*met(C|)	*met(C|)
=1-	=1-	=1-	=1-
!	!LO:TX:X=-40:Z=8:t=Canon at the lower fifth (one breve) [probably&colon; bassus lost]	!	!
0r	0r	1r	1d
.	.	1G	2d/
.	.	.	2d/
=2	=2	=2	=2
0r	0r	2G/	1g
.	.	2G/	.
.	.	1c	2g/
.	.	.	[2a/
=3	=3	=3	=3
0r	0D	2d\	4a/]
.	.	.	4g/
.	.	4c\	4f/
.	.	4B\	4e/
.	.	1A	2.f/
.	.	.	4e/
=4	=4	=4	=4
0GG	1D	2.G/	1g
.	.	4A/	.
.	1D	4B\	2d/
.	.	4c\	.
.	.	2d\	[2g/
=5	=5	=5	=5
1GG	0G	2e\	2g/]
.	.	1c	4f/
.	.	.	4e/
1GG	.	.	1d
.	.	2B\	.
=6	=6	=6	=6
0C	1r	1.c	1c
.	1G	.	1cc
.	.	4B\	.
.	.	4A/	.
=7	=7	=7	=7
1r	1B	2G/	2.dd\
.	.	1g	.
.	.	.	4cc\
1C	1c	.	4b\
.	.	.	4a/
.	.	[2e\	[2a/
=8	=8	=8	=8
1E	1B	2e\]	2a/]
.	.	2e\	2g/
1F	1A	2.c\	2a/
.	.	.	[2cc\
.	.	4d\	.
=9	=9	=9	=9
1E	0r	4e\	4cc\]
.	.	4f\	4b\
.	.	1g	2g/
1D	.	.	1a
.	.	2f#i\	.
=10	=10	=10	=10
0r	1B	1g	1d
.	1c	2g\	1r
.	.	[2e\	.
=11	=11	=11	=11
1E	1B	2e\]	1g
.	.	2e\	.
1F	1A	2c\	2a/
.	.	[2d\	2a/
=12	=12	=12	=12
1E	1B	2d\]	1g
.	.	2G/	.
1D	1r	1A	1f
=13	=13	=13	=13
1E	1G	1G	2r
.	.	.	2g/
1r	1A	[1c	2f/
.	.	.	[2e/
=14	=14	=14	=14
1C	1G	1c]	2e/]
.	.	.	2g/
1D	1r	2A/	2f/
.	.	2B\	2d/
=15	=15	=15	=15
1C	1E	1c	2g/
.	.	.	4f/
.	.	.	4e/
1r	2F/	2r	1d
.	2G/	2d\	.
=16	=16	=16	=16
1AA	1A	2e\	1c
.	.	2c\	.
2BB/	2r	2d\	2f/
2C/	2G/	4c\	[2e/
.	.	4B\	.
=17	=17	=17	=17
1D	1F	1A	2e/]
.	.	.	1d
2r	1E	1G	.
2C/	.	.	[2g/
=18	=18	=18	=18
1BB	1D	2r	4g/]
.	.	.	4f/
.	.	1G	4e/
.	.	.	4d/
1AA	1r	.	1c
.	.	2F#i/	.
=19	=19	=19	=19
1GG	1d	0G	1r
1r	2d\	.	1dd
.	2d\	.	.
=20	=20	=20	=20
1G	1B	2r	2dd\
.	.	1d	2dd\
2G\	1G	.	1b
2G\	.	[2B\	.
=21	=21	=21	=21
1E	1r	2B\]	2g/
.	.	1e	2.cc\
1C	[1c	.	.
.	.	.	4b\
.	.	[2e\	4a/
.	.	.	4g/
=22	=22	=22	=22
1r	2c\]	2e\]	2a/
.	2B\	2d\	2g/
[1F	2A/	[1c	2a/
.	2G/	.	[2cc\
=23	=23	=23	=23
2F\]	0A	1c]	4cc\]
.	.	.	4b\
2E\	.	.	4a/
.	.	.	4g/
2D\	.	2d\	2f/
2C/	.	2e\	2g/
=24	=24	=24	=24
0D	2D/	0d	2f/
.	2B\	.	1g
.	1A	.	.
.	.	.	2f#i/
=25	=25	=25	=25
0GGl	0Gl	0dl	0gl
==	==	==	==
*-	*-	*-	*-
!!!RDF**kern: l=long note in original notation
!!!RDF**kern: i=editorial accidental
!!!ENC:	Jesse Rodin 8/6/2013
!!!END:	2013/08/06/
!!!EED:	Jesse Rodin
!!!EEV:	2013/08/06/
!!!ONB:	Translated from MusicXML and edited on 2013/08/06/ by Craig Sapp
!!muse2ps: C^@{COM}^i2I150v90,90,90,150Q16
